!!!OTL: 722. Der Kosak.
!!!ARE: Europa, Mitteleuropa, Deutschland, Wetterau
!!!SCT: B0722
!!!TXL: @@DE
!!!YEM: Copyright 1995, estate of Helmut Schaffrath.
**kern	**text
*ICvox	*
*Ivox	*
*clefG2	*
*M6/8	*
*k[b-e-]	*
*B-:	*
!LO:TX:a:t=Nicht ſchnell.	!
{8a	Am
=1	=1
8dd	U-
8cc	-ral
8b-	da
8cc	bin
8b-	ich
8g	ge-
=2	=2
4.f	-bo-
4d}	-ren,
{8b-	bin
=3	=3
8.cc	ei-
16cc	-nes
8cc	Ko-
8ccL	-ſa-
8ee-J	.
8dd	-ken
=4	=4
4.b-	Sohn;
4r}	.
{8a	ich
=5	=5
8dd	hab'
8cc	es
8b-	meinem
8cc	Kai-
8b-	-ſer
8g	ge-
=6	=6
4.f	-ſchworen
4d}	.
{8b-	ʒu_be-
=7	=7
8.cc	-ſchü-
16cc	-tʒen
8cc	ſein
8ccL	Reich
8ee-J	und
8dd	ſeinen
=8	=8
4.b-	Thron.
4r}	.
{8f	Am-
=9	=9
8cc	-bro-
8cc	-fi-
8cc	-us
8ee-	werd'
8dd	ich
8cc	ge-
=10	=10
4.dd	-nannt
4r}	.
{16b-	und
16cc	ich
=11	=11
8dd	bin
8cc	als
8dd	ein
8ee-	braver
8g	.
8cc	Ko-
=12	=12
[8.b-	-ſa-
16b-]	-ke
8a	bekannt.
4b-}	.
{8f	Am-
=13	=13
8cc	-bro-
8cc	-fi-
8cc	-us
8ee-	werd'
8dd	ich
8cc	ge-
=14	=14
4.dd	-nannt
4r}	.
{16b-	und
16cc	ich
=15	=15
8dd	bin
8cc	als
8dd	ein
8ee-	braver
8g	.
8cc	Ko-
=16	=16
[8.b-	-ſa-
16b-]	-ke
8a	bekannt.
4b-}	.
==	==
!!!AGN: ???
!!!GTL: Auslaendische Weisen, die in Deutschland gesungen wurden
!!!ONB: ESAC (Essen Associative Code) Database: BOEHME
!!!AMT: compound duple
!!!AIN: vox
!!!EED: Helmut Schaffrath
!!!EEV: 1.0
!!Muendlich. Aus der Wetterau. 1892.
!!@@COMMENT:"Titel und Text aus der Wetterau (Bettenhauſen 1892, durch Herrn Köhler), unvollſtändiger
!!Text aus dem Naſſauer Land bei Wolfram Nr. 455. - Das Lied ſtammt wohl nicht aus der
!!Kriegsʒeit von 1813 als viel Koſaken in Deutſchland lebten, ſondern mag neuere Dichtung ſein;
!!die Melodie wenigſtens trägt ganʒ modernen Charakter.
!!* Var. Die Lieb', die uns beide verbindet, hält uns in der Ferne vereint."
!!@@END:
!!!URL-scan: https://archive.org/details/BoehmeVtLieder1895/page/n573/mode/2up
!!!ENC: Anna Maria Matuszewska
!!!EEV: 2024/18/07
*-	*-
